images/logo.svg

<svg width="68" height="20" viewBox="0 0 68 20" fill="none" xmlns="http://www.w3.org/2000/svg">
<path d="M6.78 19.3C5.48 19.3 4.5 18.95 3.84 18.25C3.2 17.53 2.88 16.65 2.88 15.61V6.67H0.51L0.78 4.18H2.88V0.67L6 0.369998V4.18H9.63V6.67H6V14.02C6 14.94 6.05 15.58 6.15 15.94C6.27 16.28 6.5 16.5 6.84 16.6C7.18 16.7 7.82 16.75 8.76 16.75H9.57L9.33 19.3H6.78ZM18.1467 19.3C16.4467 19.3 14.9867 18.95 13.7667 18.25C12.5667 17.55 11.6567 16.61 11.0367 15.43C10.4367 14.25 10.1367 12.93 10.1367 11.47C10.1367 10.09 10.4167 8.83 10.9767 7.69C11.5567 6.53 12.3867 5.61 13.4667 4.93C14.5667 4.25 15.8667 3.91 17.3667 3.91C19.3267 3.91 20.8867 4.49 22.0467 5.65C23.2067 6.79 23.7867 8.32 23.7867 10.24C23.7867 10.76 23.7267 11.32 23.6067 11.92H13.3467C13.5467 13.58 14.0967 14.78 14.9967 15.52C15.9167 16.26 17.0767 16.63 18.4767 16.63C20.0567 16.63 21.5067 16.29 22.8267 15.61L23.1267 18.16C21.5267 18.92 19.8667 19.3 18.1467 19.3ZM20.5767 9.79C20.5767 8.85 20.3067 8.08 19.7667 7.48C19.2267 6.88 18.4167 6.58 17.3367 6.58C15.3167 6.58 14.0467 7.65 13.5267 9.79H20.5767ZM28.8476 19.3C27.5476 19.3 26.4776 18.9 25.6376 18.1C24.8176 17.3 24.4076 16.25 24.4076 14.95C24.4076 13.65 24.8576 12.61 25.7576 11.83C26.6776 11.05 27.7876 10.5 29.0876 10.18C30.3876 9.84 31.7076 9.66 33.0476 9.64C33.0276 8.5 32.7776 7.72 32.2976 7.3C31.8376 6.86 31.0876 6.64 30.0476 6.64C29.4076 6.64 28.7676 6.74 28.1276 6.94C27.5076 7.12 26.8176 7.44 26.0576 7.9L25.6976 5.35C26.4376 4.89 27.2476 4.54 28.1276 4.3C29.0276 4.04 29.9476 3.91 30.8876 3.91C32.7276 3.91 34.0676 4.41 34.9076 5.41C35.7476 6.41 36.1676 8.11 36.1676 10.51V13.96C36.1676 14.74 36.1976 15.32 36.2576 15.7C36.3376 16.08 36.4776 16.35 36.6776 16.51C36.8976 16.67 37.2376 16.75 37.6976 16.75H38.0576L37.6976 19.3H37.0076C35.9676 19.3 35.1776 19.14 34.6376 18.82C34.1176 18.5 33.6976 18 33.3776 17.32C32.8376 17.94 32.1776 18.43 31.3976 18.79C30.6176 19.13 29.7676 19.3 28.8476 19.3ZM29.8076 16.84C30.3876 16.84 30.9676 16.7 31.5476 16.42C32.1476 16.14 32.6476 15.75 33.0476 15.25V11.77C29.4476 11.89 27.6476 12.9 27.6476 14.8C27.6476 16.16 28.3676 16.84 29.8076 16.84ZM56.276 3.91C58.196 3.91 59.636 4.47 60.596 5.59C61.556 6.71 62.036 8.34 62.036 10.48V19H58.886V10.6C58.886 9.2 58.636 8.18 58.136 7.54C57.636 6.9 56.826 6.58 55.706 6.58C53.386 6.58 52.226 7.91 52.226 10.57V19H49.076V10.9C49.076 9.34 48.806 8.23 48.266 7.57C47.726 6.91 46.926 6.58 45.866 6.58C44.326 6.58 43.166 7.12 42.386 8.2V19H39.266V4.18H41.816L42.056 5.59C43.416 4.47 44.926 3.91 46.586 3.91C48.706 3.91 50.226 4.76 51.146 6.46C52.226 4.76 53.936 3.91 56.276 3.91Z" fill="white"/>
<path d="M64.2267 15.43H67.7667V19H64.2267V15.43Z" fill="#0BCBFF"/>
</svg>

<svg xmlns="http://www.w3.org/2000/svg" width="68" height="20" fill="none"><path fill="#fff" d="M6.78 19.3c-1.3 0-2.28-.35-2.94-1.05-.64-.72-.96-1.6-.96-2.64V6.67H.51l.27-2.49h2.1V.67L6 .37v3.81h3.63v2.49H6v7.35c0 .92.05 1.56.15 1.92.12.34.35.56.69.66.34.1.98.15 1.92.15h.81l-.24 2.55H6.78Zm11.367 0c-1.7 0-3.16-.35-4.38-1.05-1.2-.7-2.11-1.64-2.73-2.82-.6-1.18-.9-2.5-.9-3.96 0-1.38.28-2.64.84-3.78a6.778 6.778 0 0 1 2.49-2.76c1.1-.68 2.4-1.02 3.9-1.02 1.96 0 3.52.58 4.68 1.74 1.16 1.14 1.74 2.67 1.74 4.59 0 .52-.06 1.08-.18 1.68h-10.26c.2 1.66.75 2.86 1.65 3.6.92.74 2.08 1.11 3.48 1.11 1.58 0 3.03-.34 4.35-1.02l.3 2.55c-1.6.76-3.26 1.14-4.98 1.14Zm2.43-9.51c0-.94-.27-1.71-.81-2.31-.54-.6-1.35-.9-2.43-.9-2.02 0-3.29 1.07-3.81 3.21h7.05Zm8.27 9.51c-1.3 0-2.37-.4-3.21-1.2-.82-.8-1.23-1.85-1.23-3.15 0-1.3.45-2.34 1.35-3.12.92-.78 2.03-1.33 3.33-1.65 1.3-.34 2.62-.52 3.96-.54-.02-1.14-.27-1.92-.75-2.34-.46-.44-1.21-.66-2.25-.66-.64 0-1.28.1-1.92.3-.62.18-1.31.5-2.07.96l-.36-2.55c.74-.46 1.55-.81 2.43-1.05.9-.26 1.82-.39 2.76-.39 1.84 0 3.18.5 4.02 1.5.84 1 1.26 2.7 1.26 5.1v3.45c0 .78.03 1.36.09 1.74.08.38.22.65.42.81.22.16.56.24 1.02.24h.36l-.36 2.55h-.69c-1.04 0-1.83-.16-2.37-.48-.52-.32-.94-.82-1.26-1.5-.54.62-1.2 1.11-1.98 1.47-.78.34-1.63.51-2.55.51Zm.96-2.46c.58 0 1.16-.14 1.74-.42.6-.28 1.1-.67 1.5-1.17v-3.48c-3.6.12-5.4 1.13-5.4 3.03 0 1.36.72 2.04 2.16 2.04ZM56.277 3.91c1.92 0 3.36.56 4.32 1.68.96 1.12 1.44 2.75 1.44 4.89V19h-3.15v-8.4c0-1.4-.25-2.42-.75-3.06-.5-.64-1.31-.96-2.43-.96-2.32 0-3.48 1.33-3.48 3.99V19h-3.15v-8.1c0-1.56-.27-2.67-.81-3.33-.54-.66-1.34-.99-2.4-.99-1.54 0-2.7.54-3.48 1.62V19h-3.12V4.18h2.55l.24 1.41c1.36-1.12 2.87-1.68 4.53-1.68 2.12 0 3.64.85 4.56 2.55 1.08-1.7 2.79-2.55 5.13-2.55Z"/><path fill="#0BCBFF" d="M64.227 15.43h3.54V19h-3.54v-3.57Z"/></svg>
